icons/timer-fill.svg

<svg xmlns="http://www.w3.org/2000/svg" width="24" height="24" fill="none"><g clip-path="url(#a)"><g><path fill="#121212" d="M17.6176 5.968L19.0706 4.515L20.4846 5.929L19.0316 7.382C20.4673 9.17917 21.1605 11.4579 20.9687 13.7501C20.7768 16.0424 19.7146 18.1742 18.0001 19.7077C16.2856 21.2412 14.0489 22.0601 11.7496 21.9961C9.45018 21.9321 7.26258 20.9901 5.63604 19.3635C4.00951 17.737 3.0675 15.5494 3.00349 13.25C2.93948 10.9506 3.75832 8.71402 5.29185 6.99951C6.82538 5.285 8.95718 4.22275 11.2494 4.03092C13.5417 3.83909 15.8204 4.53223 17.6176 5.968ZM10.9996 8V14H12.9996V8H10.9996ZM7.99957 1H15.9996V3H7.99957V1Z"/></g></g><defs><clipPath id="a"><rect width="24" height="24" fill="white"/></clipPath></defs></svg>

<svg width="24" height="24" fill="none" xmlns="http://www.w3.org/2000/svg"><g clip-path="url(#a)"><path d="m17.618 5.968 1.453-1.453 1.414 1.414-1.453 1.453a9 9 0 1 1-1.414-1.414ZM11 8v6h2V8h-2ZM8 1h8v2H8V1Z" /></g><defs><clipPath id="a"><path fill="#fff" d="M0 0h24v24H0z"/></clipPath></defs></svg>
